X: 26
T: Cherish the Ladies
N: page 8
N: heptatonic
N: matches 241
C: anon.
O: Ireland
B: Francis O'Neill: "The Dance Music of Ireland" (1907) no. 29
R: Double jig
M: 6/8
L: 1/8
K: D
"D"dFF AFF|DFA AFA|"A"BEE CEE|FEF AGc|\
"D"dFF AFF|DFA AFA|"G"Bcd efg|"D"fdc d3 ::
"D"dfd "A"cec|"D"dcd AFA|"A"BEE CEE|FEF ABc|\
"D"dfd "A"cec|"D"dcd AFA|"G"Bcd efg|"D"fdc d3:|
A|~d3 fed|afd fed|"G"~B3 ~g3|"A"ece gfe|\
"D"dcd fed|afd "G"gbg|"D"fdB AGF|"G"GEF GFE|
"D"~d3 fed|afd fed|"G"~B3 ~g3|"A"ece gfe|\
~a3 "G"bgb|"D"afa "G"g2e|"G"fdB AGF|GEF GFE|:
"D"ADD AGF|ADD AdB|ADD AGF|"G"GEF GFE|"D"ADD AGF|ADD "A"AB=c|
"G"BGB "D"AFA|"G"GEF GFE:: "D"DFA dAF|DFA "G"BGE|"D"DFA dAF|
"G"GAG GFE|"D"DFA ~d3|"A"~c3 AB=c|"G"BGB "D"AFA|"G"GEF GFE:|
